Sources/FrostedUI/Resources/Icons.xcassets/mentionFilled32.imageset/mention-filled-32.svg

<svg width="32" height="32" viewBox="0 0 32 32" fill="none" xmlns="http://www.w3.org/2000/svg" data-fui-icon="true">
  <path
    d="M16.0005 0.999329C24.2845 0.99957 31.0002 7.71533 31.0005 15.9993C31.0005 24.2835 24.2846 31.0001 16.0005 31.0003C7.71613 31.0003 0.999512 24.2837 0.999512 15.9993C0.999765 7.71518 7.71628 0.999329 16.0005 0.999329ZM16.186 6.09698C14.6586 6.09698 13.2683 6.33513 12.0161 6.80988C10.7709 7.27773 9.69764 7.95174 8.79639 8.83234C7.90193 9.70615 7.21356 10.7522 6.73193 11.97C6.25039 13.1809 6.00928 14.5328 6.00928 16.0257C6.00928 17.5119 6.25031 18.8606 6.73193 20.0716C7.22036 21.2823 7.91193 22.321 8.80615 23.1878C9.7074 24.0615 10.7845 24.7326 12.0366 25.2005C13.2888 25.6752 14.6859 25.9134 16.2271 25.9134C17.4654 25.9134 18.5319 25.7928 19.4263 25.5521C19.9888 25.4018 20.4647 25.2607 20.853 25.1292C21.1947 25.0134 21.3546 24.6341 21.2231 24.2982L20.8276 23.2894C20.6924 22.9441 20.3012 22.7742 19.9478 22.886C19.6385 22.984 19.2716 23.0879 18.8481 23.1985C18.0845 23.398 17.2069 23.4984 16.2163 23.4984C14.6615 23.4983 13.3163 23.1917 12.1812 22.5794C11.0529 21.974 10.1793 21.1138 9.56006 19.9993C8.94089 18.8779 8.63141 17.5501 8.63135 16.0159C8.63135 14.4816 8.94082 13.1531 9.56006 12.0316C10.1793 10.9101 11.0567 10.0433 12.1919 9.43097C13.3271 8.81865 14.6721 8.51203 16.2271 8.51202C17.6926 8.51202 18.9623 8.79451 20.0356 9.3587C21.1089 9.91601 21.9382 10.7211 22.5229 11.7737C23.1077 12.8195 23.3999 14.0788 23.3999 15.5511C23.3999 16.6588 23.2283 17.5294 22.8843 18.1624C22.5471 18.7885 22.0786 19.1009 21.48 19.1009C21.198 19.1008 20.9742 19.0189 20.8091 18.8538C20.6509 18.6819 20.5718 18.3962 20.5718 17.9974V11.7278C20.5716 11.36 20.2737 11.062 19.9058 11.0618H18.895C18.6129 11.0618 18.3843 11.2904 18.3843 11.5726V12.0765C18.3843 12.0801 18.381 12.0833 18.3774 12.0833C18.3752 12.0833 18.3727 12.0823 18.3716 12.0804C18.1786 11.7446 17.8351 11.4533 17.3413 11.2064C16.846 10.9519 16.2547 10.8246 15.5669 10.8245C14.7275 10.8245 13.9533 11.0309 13.2446 11.4437C12.5359 11.8496 11.9642 12.4377 11.5308 13.2083C11.0974 13.9789 10.8813 14.9113 10.8813 16.0052C10.8814 17.0097 11.0732 17.9112 11.4585 18.7093C11.8437 19.5004 12.3877 20.1263 13.0894 20.5872C13.7911 21.0482 14.6204 21.2786 15.5767 21.2786C16.4092 21.2786 17.0802 21.1138 17.5894 20.7835C18.0968 20.4475 18.4373 20.0599 18.6099 19.6214C18.611 19.619 18.6131 19.6175 18.6157 19.6175C18.6188 19.6175 18.6217 19.6194 18.6226 19.6224C18.7063 20.0332 18.9674 20.4244 19.4058 20.7943C19.8461 21.1657 20.5172 21.3509 21.4185 21.3509C22.8564 21.3509 23.9777 20.8418 24.7827 19.8235C25.5876 18.7984 25.9907 17.3607 25.9907 15.5101C25.9907 13.6181 25.5847 11.9664 24.7729 10.556C23.9611 9.14549 22.8186 8.05123 21.3462 7.27374C19.8807 6.48941 18.1606 6.09702 16.186 6.09698ZM15.856 13.0843C16.6332 13.0844 17.2284 13.3389 17.6411 13.848C18.0608 14.3502 18.271 15.0695 18.271 16.0052C18.271 16.934 18.0608 17.6533 17.6411 18.1624C17.2284 18.6645 16.6332 18.9153 15.856 18.9153C15.0511 18.9153 14.4281 18.6645 13.9878 18.1624C13.5543 17.6602 13.3374 16.9409 13.3374 16.0052C13.3374 15.0695 13.5543 14.3502 13.9878 13.848C14.4281 13.339 15.0511 13.0843 15.856 13.0843Z"
    fill="currentColor"
  />
</svg>

<svg xmlns="http://www.w3.org/2000/svg" width="32" height="32" fill="none" data-fui-icon="true" viewBox="0 0 32 32"><path fill="currentColor" d="M16 1c8.285 0 15 6.715 15 15s-6.715 15-15 15S1 24.284 1 16C1 7.714 7.716 1 16 1m.186 5.097q-2.291 0-4.17.713-1.867.702-3.22 2.022a8.9 8.9 0 0 0-2.064 3.138q-.723 1.816-.723 4.056 0 2.23.723 4.046a8.9 8.9 0 0 0 2.074 3.116q1.353 1.311 3.23 2.013 1.88.712 4.191.712 1.857 0 3.2-.36.844-.226 1.426-.424a.626.626 0 0 0 .37-.83l-.395-1.01a.71.71 0 0 0-.88-.403q-.464.147-1.1.313-1.146.3-2.632.3-2.332 0-4.035-.92A6.4 6.4 0 0 1 9.561 20q-.93-1.682-.93-3.983t.93-3.984a6.43 6.43 0 0 1 2.63-2.601q1.704-.918 4.036-.919 2.199 0 3.809.847a5.9 5.9 0 0 1 2.487 2.415q.877 1.569.877 3.777 0 1.662-.516 2.611-.506.94-1.404.939-.424 0-.67-.247-.239-.258-.238-.857v-6.27a.666.666 0 0 0-.666-.665h-1.011a.51.51 0 0 0-.51.51v.505a.01.01 0 0 1-.008.006q-.003 0-.005-.003-.29-.503-1.03-.874-.743-.381-1.775-.381-1.26 0-2.322.619-1.064.609-1.714 1.764t-.65 2.797q0 1.507.578 2.704.578 1.187 1.63 1.878 1.053.692 2.488.692 1.248 0 2.012-.495.762-.504 1.02-1.163a.01.01 0 0 1 .007-.003q.005 0 .007.004.124.617.783 1.172.66.558 2.013.557 2.156 0 3.364-1.527 1.208-1.538 1.208-4.314 0-2.838-1.218-4.954t-3.427-3.282q-2.198-1.177-5.16-1.177m-.33 6.987q1.166 0 1.785.764.63.753.63 2.157 0 1.393-.63 2.157-.62.754-1.785.753-1.208 0-1.868-.753-.65-.753-.65-2.157t.65-2.157q.66-.764 1.868-.764"/></svg>
